X:1
T:Keep in Touch with Jesus
T:C. S. Kauffman, 1900
T:Keep in Touch with Jesus
T:Public Domain
T:Public Domain
T:Public Domain
C:C. S. Kauffman, 1900
Z:Public Domain
%%score 1 ( 2 3 )
L:1/8
M:6/8
K:C
V:1 treble 
V:2 bass 
V:3 bass 
V:1
 [CE]2 [DF] [^D^F]2 [EG] | [FA]3 [EG]3 | [CE]2 [DF] [EG]2 [Ec] | [FB]6 | [B,D]2 [CE] [DF]2 [EG] | %5
w: 1.~Would you be a|vic- tor|o- ver ev- ery|foe,|Con- quer ev- ery|
w: 2.~Ma- ny hearts are|brok- en—|oft an ach- ing|breast|Waits the mess- age|
w: 3.~Would you be a|bless- ing|all a- long the|way;|Would you be pos-|
w: 4.~Would you have com-|mun- ion|with your Lord each|day,|Have a bless- èd|
 [GB]3 [FA]3 | [EG]2 [FA] [EG]2 [DF] | [CE]6 | [CE]2 [DF] [^D^F]2 [EG] | [FA]3 [EG]3 | %10
w: tri- al|in this world be-|low;|O- ver- come temp-|ta- tions|
w: spok- en|that will give it|rest;|You per- haps can|bring them|
w: sess- ing|per- fect love each|day?|Let the Ho- ly|Spir- it|
w: un- ion|with Him all the|way;|Pray- ing with- out|ceas- ing,|
 [CE]2 [EG] [Gc]2 [GB] | [FA]6 | [Fc]2 [Fc] [Ad]2 [Ac] | [Ge]3 [Gc]3 | [Ge]2 [Fd] [FB]2 [FG] | %15
w: that each day you|meet?|Keep in touch with|Je- sus;|He will keep you|
w: joy and peace com-|plete,|Keep in touch with|Je- sus;|He will keep you|
w: o- ver- come de-|feat;|Keep in touch with|Je- sus;|He will keep you|
w: learn- ing at His|feet?|Keep in touch with|Je- sus;|He will keep you|
 [Ec]6 ||"^Refrain" [Ec]2 [EG] [EA]2 [Ec] | [FB]3 [FB]3 | [Fd]2 [FG] [FB]2 [Fd] | [Ec]6 | %20
w: sweet.|||||
w: sweet.|Keep in touch with|Je- sus,|tho’ the path be|dim;|
w: sweet.|||||
w: sweet.|||||
 [FA]2 [Ac] [GB]2 [FA] | [EG]2 [CE] [EG]2 [Ge] | [^Fd]3 [DA]3 | [Fd]6 | [CE]2 [DF] [^D^F]2 [EG] | %25
w: |||||
w: Let no cloud nor|sha- dow sev- er|you from|Him.|Joy or sor- row|
w: |||||
w: |||||
 [^DA]3 [EG]3 | [CE]2 [EG] [Gc]2 [GB] | [FA]6 | [Fc]2 [Fc] [Ad]2 [Ac] | [Ge]3 [Gc]3 | %30
w: |||||
w: greet you,|friend or foe you|meet,|Keep in touch with|Je- sus;|
w: |||||
w: |||||
 [Ge]2 [Fd] [FB]2 [FG] | [Ec]6 |] %32
w: ||
w: He will keep you|sweet.|
w: ||
w: ||
V:2
 [C,G,]2 [C,G,] [C,C]2 [C,C] | [C,C]3 [C,C]3 | [C,G,]2 [C,G,] [C,C]2 [C,G,] | [D,G,]6 | %4
 G,2 G, G,2 G, | [G,,G,]3 [G,,G,]3 | [G,,G,]2 [G,,G,] [G,,G,]2 [G,,G,] | [C,G,]6 | %8
 [C,G,]2 [C,G,] [C,C]2 [C,C] | [C,C]3 [C,C]3 | [C,G,]2 [C,C] [E,C]2 [E,C] | [F,C]6 | %12
 [F,A,]2 [F,A,] [^F,D]2 [F,D] | [G,C]3 [G,E]3 | [G,C]2 [G,B,] [G,D]2 [G,B,] | [C,C]6 || %16
 [C,G,]2 [C,C] [C,C]2 [C,C] | [G,D]3 [G,D]3 | [G,B,]2 [G,B,] [G,D]2 [G,B,] | [C,C]6 | %20
 [F,C]2 [F,C] [F,C]2 [F,C] | [C,C]2 [C,G,] [C,C]2 [C,C] | [D,C]3 [^F,C]3 | [G,B,]6 | %24
 [C,C]2 [C,B,] [C,A,]2 [C,G,] | [C,^F,]3 [C,G,]3 | [C,G,]2 [C,C] [E,C]2 [E,C] | [F,C]6 | %28
 [F,A,]2 [F,A,] [^F,^D]2 [F,D] | [G,C]3 [G,E]3 | [G,C]2 [G,B,] [G,D]2 [G,B,] | [C,C]6 |] %32
V:3
 x6 | x6 | x6 | x6 | G,2 G, G,2 G, | x6 | x6 | x6 | x6 | x6 | x6 | x6 | x6 | x6 | x6 | x6 || x6 | %17
 x6 | x6 | x6 | x6 | x6 | x6 | x6 | x6 | x6 | x6 | x6 | x6 | x6 | x6 | x6 |] %32

